X: 34661
T: Road To California
R: reel
M: 4/4
K: Dmajor
D2DE FEFE|DFAB A4|dcBA GFED|1 CDEF E4:|2 CDE2 D4||
|:B2B2B3A|BABc dcBA|F2A2 ABAG|FEFG AFEF|
F2B2B3A|BABc dcBA|F2D2 DEFD|EDE2 D4:|

